public/websites.svg

<svg width="386" height="281" viewBox="0 0 386 281" fill="none" xmlns="http://www.w3.org/2000/svg">
<path d="M5.5 275.833H380.5" stroke="#75F7BB" stroke-width="10" stroke-linecap="round" stroke-linejoin="round"/>
<path d="M47.168 25.8333C47.168 20.308 49.3629 15.009 53.2699 11.1019C57.1769 7.19494 62.476 5 68.0013 5H318.001C323.527 5 328.826 7.19494 332.733 11.1019C336.64 15.009 338.835 20.308 338.835 25.8333V192.5C338.835 198.025 336.64 203.324 332.733 207.231C328.826 211.138 323.527 213.333 318.001 213.333H68.0013C62.476 213.333 57.1769 211.138 53.2699 207.231C49.3629 203.324 47.168 198.025 47.168 192.5V25.8333Z" stroke="#75F7BB" stroke-width="10" stroke-linecap="round" stroke-linejoin="round"/>
<rect x="69" y="72" width="37" height="54" rx="6" fill="#3C5648"/>
<rect x="111" y="72" width="37" height="54" rx="6" fill="#3C5648"/>
<rect x="153" y="72" width="37" height="54" rx="6" fill="#3C5648"/>
<rect x="195" y="72" width="37" height="54" rx="6" fill="#3C5648"/>
<rect x="237" y="72" width="37" height="54" rx="6" fill="#3C5648"/>
<rect x="279" y="72" width="37" height="54" rx="6" fill="#3C5648"/>
<rect x="68" y="25" width="253" height="31" rx="15.5" fill="#97F3BF" fill-opacity="0.27"/>
<g clip-path="url(#clip0_1104_5352)">
<path d="M80 40.6667C80 41.2795 80.1207 41.8863 80.3552 42.4525C80.5898 43.0187 80.9335 43.5332 81.3668 43.9665C81.8002 44.3998 82.3146 44.7436 82.8808 44.9781C83.447 45.2126 84.0538 45.3333 84.6667 45.3333C85.2795 45.3333 85.8863 45.2126 86.4525 44.9781C87.0187 44.7436 87.5332 44.3998 87.9665 43.9665C88.3998 43.5332 88.7436 43.0187 88.9781 42.4525C89.2126 41.8863 89.3333 41.2795 89.3333 40.6667C89.3333 40.0538 89.2126 39.447 88.9781 38.8808C88.7436 38.3146 88.3998 37.8002 87.9665 37.3668C87.5332 36.9335 87.0187 36.5898 86.4525 36.3552C85.8863 36.1207 85.2795 36 84.6667 36C84.0538 36 83.447 36.1207 82.8808 36.3552C82.3146 36.5898 81.8002 36.9335 81.3668 37.3668C80.9335 37.8002 80.5898 38.3146 80.3552 38.8808C80.1207 39.447 80 40.0538 80 40.6667Z" stroke="white" stroke-opacity="0.7" stroke-width="2" stroke-linecap="round" stroke-linejoin="round"/>
<path d="M90 46L89.5 45.5" stroke="white" stroke-opacity="0.7" stroke-width="2" stroke-linecap="round" stroke-linejoin="round"/>
</g>
<rect x="64" y="139" width="252" height="57" rx="10" fill="#3C5648"/>
<circle cx="83" cy="157" r="9" fill="white" fill-opacity="0.57"/>
<path d="M97.5 158H198.5" stroke="#ABB6B0" stroke-width="4" stroke-linecap="round"/>
<path d="M78 176H218" stroke="#ABB6B0" stroke-width="2" stroke-linecap="round"/>
<path d="M78 187H194" stroke="#ABB6B0" stroke-width="2" stroke-linecap="round"/>
<defs>
<clipPath id="clip0_1104_5352">
<rect width="16" height="16" fill="white" transform="translate(78 34)"/>
</clipPath>
</defs>
</svg>

<svg xmlns="http://www.w3.org/2000/svg" width="386" height="281" fill="none" xmlns:v="https://vecta.io/nano"><g stroke="#75f7bb" stroke-width="10" stroke-linejoin="round"><path d="M5.5 275.833h375" stroke-linecap="round"/><path d="M47.168 25.833c0-5.525 2.195-10.824 6.102-14.731S62.476 5 68.001 5h250c5.526 0 10.825 2.195 14.732 6.102s6.102 9.206 6.102 14.731V192.5c0 5.525-2.195 10.824-6.102 14.731s-9.206 6.102-14.732 6.102h-250c-5.525 0-10.824-2.195-14.731-6.102s-6.102-9.206-6.102-14.731V25.833z"/></g><g fill="#3c5648"><rect x="69" y="72" width="37" height="54" rx="6"/><rect x="111" y="72" width="37" height="54" rx="6"/><rect x="153" y="72" width="37" height="54" rx="6"/><rect x="195" y="72" width="37" height="54" rx="6"/><rect x="237" y="72" width="37" height="54" rx="6"/><rect x="279" y="72" width="37" height="54" rx="6"/></g><rect x="68" y="25" width="253" height="31" rx="15.5" fill="#97f3bf" fill-opacity=".27"/><g clip-path="url(#A)" stroke="#fff" stroke-width="2" stroke-linejoin="round"><path d="M80 40.667c0 .613.121 1.22.355 1.786a4.67 4.67 0 0 0 2.526 2.526c.566.235 1.173.355 1.786.355s1.22-.121 1.786-.355 1.081-.578 1.514-1.012.777-.948 1.012-1.514.355-1.173.355-1.786-.121-1.22-.355-1.786a4.67 4.67 0 0 0-2.526-2.526c-.566-.235-1.173-.355-1.786-.355s-1.22.121-1.786.355a4.67 4.67 0 0 0-2.526 2.526c-.234.566-.355 1.173-.355 1.786z" stroke-opacity=".7"/><path d="M90 46l-.5-.5" stroke-opacity=".7" stroke-linecap="round"/></g><rect x="64" y="139" width="252" height="57" rx="10" fill="#3c5648"/><circle cx="83" cy="157" r="9" fill="#fff" fill-opacity=".57"/><g stroke-linecap="round" stroke="#abb6b0"><path d="M97.5 158h101" stroke-width="4"/><path d="M78 176h140M78 187h116" stroke-width="2"/></g><defs><clipPath id="A"><path fill="#fff" transform="translate(78 34)" d="M0 0h16v16H0z"/></clipPath></defs></svg>
